svgs/solid/pickleball.svg

<svg xmlns="http://www.w3.org/2000/svg" viewBox="0 0 576 512"><!--! Font Awesome Pro 6.2.0 by @fontawesome - https://fontawesome.com License - https://fontawesome.com/license (Commercial License) Copyright 2022 Fonticons, Inc. --><path d="M250.4 28c37.5-37.4 98.4-37.4 136 0L499.9 141.3c29.2 29.2 35.7 72.4 19.4 107.8c-24.9-15.8-54.4-25-86.1-25c-72 0-133 47.3-153.3 112.5L155.7 212.8c-6.3-6.2-16.4-6.2-22.6 0s-6.2 16.4 0 22.6L273 374.9c-.2 3-.3 6.1-.3 9.1c0 27.8 7.1 53.8 19.6 76.6c-9.3 .5-18.7-1-27.6-4.7l-56.7-23.2c-23.9-9.8-51.4-4.3-69.6 13.9L84.4 500.3c-15.6 15.6-41 15.6-56.7 0s-15.6-40.9 0-56.5l53.5-53.4c18.4-18.3 23.8-45.8 13.9-69.8L71.1 262.8c-10-23.9-4.5-51.4 13.9-69.7L250.4 28zM560 384c0 70.7-57.3 128-128 128s-128-57.3-128-128s57.3-128 128-128s128 57.3 128 128zM336 368c0 8.8 7.2 16 16 16s16-7.2 16-16s-7.2-16-16-16s-16 7.2-16 16zm80 80c-8.8 0-16 7.2-16 16s7.2 16 16 16s16-7.2 16-16s-7.2-16-16-16zm0-64c0 8.8 7.2 16 16 16s16-7.2 16-16s-7.2-16-16-16s-16 7.2-16 16zm96 0c-8.8 0-16 7.2-16 16s7.2 16 16 16s16-7.2 16-16s-7.2-16-16-16zm-80-80c0 8.8 7.2 16 16 16s16-7.2 16-16s-7.2-16-16-16s-16 7.2-16 16z"/></svg>

<svg xmlns="http://www.w3.org/2000/svg" viewBox="0 0 576 512"><!--! Font Awesome Pro 6.1.2 by @fontawesome - https://fontawesome.com License - https://fontawesome.com/license (Commercial License) Copyright 2022 Fonticons, Inc. --><path d="M250.4 28.02C287.9-9.414 348.8-9.414 386.3 28.02L499.9 141.3C529.1 170.5 535.6 213.7 519.3 249.1C494.4 233.3 464.9 224.1 433.2 224.1C361.1 224.1 300.2 271.5 279.9 336.6L155.7 212.8C149.4 206.6 139.3 206.6 133 212.8C126.8 219.1 126.8 229.2 133.1 235.5L272.1 374.9C272.8 377.9 272.7 380.1 272.7 384.1C272.7 411.8 279.8 437.9 292.3 460.7C283 461.1 273.6 459.6 264.6 455.9L207.9 432.7C184 422.9 156.5 428.4 138.3 446.6L84.44 500.3C68.79 515.9 43.42 515.8 27.78 500.2C12.13 484.7 12.14 459.4 27.79 443.8L81.33 390.4C99.7 372.1 105.2 344.6 95.21 320.7L71.05 262.8C61.08 238.9 66.56 211.3 84.91 193L250.4 28.02zM560 384C560 454.7 502.7 512 432 512C361.3 512 304 454.7 304 384C304 313.3 361.3 256 432 256C502.7 256 560 313.3 560 384zM352 384C360.8 384 368 376.8 368 368C368 359.2 360.8 352 352 352C343.2 352 336 359.2 336 368C336 376.8 343.2 384 352 384zM416 448C407.2 448 400 455.2 400 464C400 472.8 407.2 480 416 480C424.8 480 432 472.8 432 464C432 455.2 424.8 448 416 448zM432 400C440.8 400 448 392.8 448 384C448 375.2 440.8 368 432 368C423.2 368 416 375.2 416 384C416 392.8 423.2 400 432 400zM512 384C503.2 384 496 391.2 496 400C496 408.8 503.2 416 512 416C520.8 416 528 408.8 528 400C528 391.2 520.8 384 512 384zM448 320C456.8 320 464 312.8 464 304C464 295.2 456.8 288 448 288C439.2 288 432 295.2 432 304C432 312.8 439.2 320 448 320z"/></svg>
